public/images/mail-with-circle.svg

<svg enable-background="new 0 0 20 20" viewBox="0 0 20 20" xmlns="http://www.w3.org/2000/svg"><path d="m10 .3999634c-5.3019409 0-9.5999756 4.2980957-9.5999756 9.6000366s4.2980347 9.5999756 9.5999756 9.5999756 9.5999756-4.2980347 9.5999756-9.5999756-4.2980347-9.6000366-9.5999756-9.6000366zm-3.7686768 6.6000366h7.5195923c.3988037 0 .1935425.5117188-.0234985.6430664-.217041.1308594-3.2213135 1.9470215-3.333313 2.0144043s-.256958.0996094-.402771.0996094c-.145874 0-.2908325-.0322266-.402771-.0996094-.1119995-.0673828-3.116333-1.8835449-3.333374-2.0144043-.21698-.1313476-.4223023-.6430664-.0238648-.6430664zm7.7686768 5.5c0 .2099609-.251709.5-.444458.5h-7.111084c-.192749 0-.444458-.2900391-.444458-.5 0 0 0-3.5544434 0-3.6467285 0-.0917969-.001709-.2114258.171875-.109375.246521.1445312 3.265625 1.9250488 3.416687 2.013916.151001.0888672.256897.0995483.402771.0995483.145813 0 .251709-.0106812.402771-.0995483s3.1875-1.8688965 3.434021-2.0134277c.173584-.1020508.171875.0175781.171875.109375z" fill="#fff"/></svg>

<?xml version="1.0" encoding="utf-8"?>
<!-- Generator: Adobe Illustrator 18.1.1, SVG Export Plug-In . SVG Version: 6.00 Build 0)  -->
<!DOCTYPE svg PUBLIC "-//W3C//DTD SVG 1.1//EN" "http://www.w3.org/Graphics/SVG/1.1/DTD/svg11.dtd">
<svg version="1.1" id="Mail_w_x2F__circle" xmlns="http://www.w3.org/2000/svg" xmlns:xlink="http://www.w3.org/1999/xlink" x="0px"
	 y="0px" viewBox="0 0 20 20" enable-background="new 0 0 20 20" xml:space="preserve">
<path fill="#FFFFFF" d="M10,0.3999634c-5.3019409,0-9.5999756,4.2980957-9.5999756,9.6000366S4.6980591,19.5999756,10,19.5999756
	S19.5999756,15.3019409,19.5999756,10S15.3019409,0.3999634,10,0.3999634z M6.2313232,7h7.5195923
	c0.3988037,0,0.1935425,0.5117188-0.0234985,0.6430664c-0.217041,0.1308594-3.2213135,1.9470215-3.333313,2.0144043
	s-0.256958,0.0996094-0.402771,0.0996094c-0.145874,0-0.2908325-0.0322266-0.402771-0.0996094
	C9.4765625,9.5900879,6.472229,7.7739258,6.255188,7.6430664C6.038208,7.5117188,5.8328857,7,6.2313232,7z M14,12.5
	c0,0.2099609-0.251709,0.5-0.444458,0.5H6.444458C6.251709,13,6,12.7099609,6,12.5c0,0,0-3.5544434,0-3.6467285
	c0-0.0917969-0.001709-0.2114258,0.171875-0.109375c0.246521,0.1445312,3.265625,1.9250488,3.416687,2.013916
	c0.151001,0.0888672,0.256897,0.0995483,0.402771,0.0995483c0.145813,0,0.251709-0.0106812,0.402771-0.0995483
	s3.1875-1.8688965,3.434021-2.0134277C14.001709,8.642334,14,8.7619629,14,8.8537598C14,8.9460449,14,12.5,14,12.5z"/>
</svg>
